X:0230
T:Irish Lasses.
M:6/8
L:1/8
Q:3/8=120
I: :: ::
Z:Jack Campin * www.campin.me.uk * 2009
K:E Minor
E2(e e)de|fag fed| c2a  B2g | BAG     AFD|
E2e  ede |fag fed| dcB  dFF | E3      B3:|
E2B  BGB |BGB BAG|TF2(A A)FA|(B/c/d)F E2D|
E2B  BGB |BGB BAG| FDF  dFF | E3      B3:|
<end>
<start>
